src/assets/icons/calendar.svg

<svg width="16" height="16" viewBox="0 0 16 16" fill="none" xmlns="http://www.w3.org/2000/svg">
<g clip-path="url(#clip0_8874_15277)">
<path fill-rule="evenodd" clip-rule="evenodd" d="M3.67837 0.0186068C3.4494 0.0622725 3.1727 0.270506 3.05892 0.484815C2.96481 0.66201 2.95318 0.750186 2.95318 1.28572V1.77744H2.4233C1.84588 1.77744 1.68495 1.79431 1.43073 1.88149C0.876553 2.07157 0.413208 2.49446 0.185354 3.01816C0.115992 3.17757 0.0834121 3.27505 0.0415819 3.44821C0.0101221 3.57845 0.00813973 3.84625 0.00241309 8.76138C-0.00184519 12.4148 0.00226626 13.9914 0.0163993 14.1209C0.116799 15.0409 0.778429 15.7613 1.70506 15.9597C1.85418 15.9916 2.13293 15.9931 8.0007 15.9931C13.8685 15.9931 14.1472 15.9916 14.2963 15.9597C14.5118 15.9136 14.7028 15.8466 14.8653 15.7602C15.4361 15.4568 15.8024 14.9727 15.96 14.3137C15.9912 14.1833 15.9933 13.9025 15.9992 9.01834C16.0035 5.39659 15.9994 3.80196 15.9854 3.66345C15.9022 2.84098 15.3537 2.15008 14.5707 1.88149C14.3165 1.79431 14.1555 1.77744 13.5781 1.77744H13.0482V1.28572C13.0482 0.750186 13.0366 0.66201 12.9425 0.484815C12.8695 0.347265 12.6719 0.158855 12.5294 0.0908323C12.282 -0.0272247 11.979 -0.0272247 11.7316 0.0908323C11.5891 0.158855 11.3915 0.347265 11.3185 0.484815C11.2244 0.66201 11.2128 0.750186 11.2128 1.28572V1.77744H8.0007H4.78864V1.28572C4.78864 0.750186 4.777 0.66201 4.6829 0.484815C4.61033 0.348109 4.41219 0.158744 4.27222 0.0922823C4.0854 0.00359273 3.88653 -0.0210759 3.67837 0.0186068ZM1.96752 3.64888C1.83859 3.72747 1.84272 3.68761 1.84272 4.85184V5.89806H8.0007H14.1587V4.85184C14.1587 3.68761 14.1628 3.72747 14.0339 3.64888C13.9797 3.61584 13.939 3.61303 13.5117 3.61298L13.0482 3.6129L13.0478 4.09471C13.0473 4.57713 13.0378 4.67804 12.98 4.81513C12.9092 4.983 12.7535 5.15833 12.5846 5.26027C12.3299 5.41401 11.9311 5.41401 11.6764 5.26027C11.5075 5.15833 11.3518 4.983 11.281 4.81513C11.2232 4.67804 11.2137 4.57713 11.2132 4.09471L11.2128 3.6129H8.0007H4.78864L4.7882 4.09471C4.78774 4.57713 4.77825 4.67804 4.72044 4.81513C4.64964 4.983 4.49388 5.15833 4.32502 5.26027C4.07031 5.41401 3.67151 5.41401 3.4168 5.26027C3.24794 5.15833 3.09218 4.983 3.02138 4.81513C2.96357 4.67804 2.95408 4.57713 2.95362 4.09471L2.95318 3.6129L2.48972 3.61298C2.06245 3.61303 2.02168 3.61584 1.96752 3.64888ZM1.83788 10.8616C1.84272 13.9794 1.84274 13.9806 1.88057 14.0313C1.90138 14.0592 1.94121 14.099 1.96909 14.1198L2.01979 14.1576H8.0007H13.9816L14.0323 14.1198C14.0602 14.099 14.1 14.0592 14.1208 14.0313C14.1587 13.9806 14.1587 13.9794 14.1635 10.8616L14.1684 7.7427H8.0007H1.83303L1.83788 10.8616Z" fill="currentColor"/>
</g>
<defs>
<clipPath id="clip0_8874_15277">
<rect width="16" height="16" fill="white" transform="translate(0 -0.000732422)"/>
</clipPath>
</defs>
</svg>

<svg xmlns="http://www.w3.org/2000/svg" width="16" height="16" fill="none">
  <g clip-path="url(#a)">
    <path fill="currentColor" fill-rule="evenodd" d="M3.678.019a1.013 1.013 0 0 0-.62.466c-.093.177-.105.265-.105.8v.492h-.53c-.577 0-.738.017-.992.104A2.12 2.12 0 0 0 .185 3.018c-.069.16-.102.257-.143.43-.032.13-.034.398-.04 5.313-.004 3.654 0 5.23.014 5.36.1.92.762 1.64 1.69 1.839.148.032.427.033 6.295.033 5.867 0 6.146-.001 6.295-.033a2.17 2.17 0 0 0 .57-.2c.57-.303.936-.787 1.094-1.446.031-.13.033-.412.04-5.296.003-3.621 0-5.216-.015-5.355a2.1 2.1 0 0 0-1.414-1.782c-.255-.087-.415-.104-.993-.104h-.53v-.491c0-.536-.011-.624-.105-.801a1.124 1.124 0 0 0-.414-.394.943.943 0 0 0-.797 0c-.143.068-.34.256-.413.394-.095.177-.106.265-.106.8v.492H4.789v-.491c0-.536-.012-.624-.106-.801a1.123 1.123 0 0 0-.41-.393.942.942 0 0 0-.595-.073Zm-1.71 3.63c-.13.078-.125.039-.125 1.203v1.046h12.316V4.852c0-1.164.004-1.125-.125-1.203-.054-.033-.095-.036-.522-.036h-.464v.482c0 .482-.01.583-.068.72a1.03 1.03 0 0 1-.395.445.952.952 0 0 1-.909 0 1.03 1.03 0 0 1-.395-.445c-.058-.137-.067-.238-.068-.72v-.482H4.789v.482c-.001.482-.01.583-.069.72a1.03 1.03 0 0 1-.395.445.952.952 0 0 1-.908 0 1.03 1.03 0 0 1-.396-.445c-.057-.137-.067-.238-.067-.72v-.482H2.49c-.428 0-.468.003-.522.036Zm-.13 7.213c.005 3.117.005 3.119.043 3.17.02.027.06.067.088.088l.05.038h11.962l.051-.038a.522.522 0 0 0 .089-.089c.038-.05.038-.052.043-3.17l.004-3.118H1.833l.005 3.119Z" clip-rule="evenodd"/>
  </g>
  <defs>
    <clipPath id="a">
      <path fill="#fff" d="M0 0h16v16H0z"/>
    </clipPath>
  </defs>
</svg>
